packages/kaspersky-hexa-ui-icons/src/iconsSVGs/16/KasperskySupportForumSolid.svg

<svg width="16" height="16" viewBox="0 0 16 16" fill="none" xmlns="http://www.w3.org/2000/svg">
<path d="M2.07349 10.5986C2.07349 9.67446 2.82696 8.92532 3.75641 8.92532H7.09509C8.02454 8.92532 8.77801 9.67446 8.77801 10.5986V11.9434C8.77801 12.1744 8.58964 12.3617 8.35728 12.3617H2.49422C2.26185 12.3617 2.07349 12.1745 2.07349 11.9434V10.5986Z" fill="black"/>
<path d="M7.04737 6.41508C7.04737 7.30549 6.32138 8.02731 5.42582 8.02731C4.53027 8.02731 3.80428 7.30549 3.80428 6.41508C3.80428 5.52467 4.53027 4.80285 5.42582 4.80285C6.32138 4.80285 7.04737 5.52467 7.04737 6.41508Z" fill="black"/>
<path d="M12.1768 5.46196C12.1768 6.4378 11.3811 7.22886 10.3997 7.22886C9.41819 7.22886 8.62255 6.4378 8.62255 5.46196C8.62255 4.48613 9.41819 3.69507 10.3997 3.69507C11.3811 3.69507 12.1768 4.48613 12.1768 5.46196Z" fill="black"/>
<path d="M7.78903 8.33008C7.65849 8.38151 7.70545 8.54267 7.84586 8.54267C8.77531 8.54267 9.52878 9.29181 9.52878 10.2159V11.9791H6.72577L13.6528 11.9791C13.8851 11.9791 14.0735 11.7918 14.0735 11.5608V9.88626C14.0735 8.96215 13.32 8.21301 12.3906 8.21301H8.40869C8.18987 8.21301 7.9808 8.25453 7.78903 8.33008Z" fill="black"/>
</svg>

<svg xmlns="http://www.w3.org/2000/svg" width="16" height="16" fill="none" viewBox="0 0 16 16"><path fill="#000" fill-rule="evenodd" d="M12.1768 5.462c0 .9758-.7957 1.7669-1.7771 1.7669-.9815 0-1.7771-.7911-1.7771-1.767s.7956-1.7668 1.7771-1.7668 1.7771.791 1.7771 1.7669m-5.1294.953c0 .8905-.726 1.6123-1.6216 1.6123s-1.6215-.7218-1.6215-1.6122.726-1.6122 1.6215-1.6122 1.6216.7218 1.6216 1.6122M7.789 8.33c-.1305.0515-.0835.2127.0569.2127.9294 0 1.6829.7491 1.6829 1.6732v1.7632h4.124c.2323 0 .4207-.1873.4207-.4183V9.8863c0-.9242-.7535-1.6733-1.6829-1.6733h-3.982c-.2187 0-.4278.0415-.6196.117m-5.7155 2.2686c0-.9241.7535-1.6733 1.683-1.6733H7.095c.9294 0 1.683.7492 1.683 1.6733v1.3448a.4.4 0 0 1-.0016.0357c-.0182.2143-.199.3826-.4192.3826h-5.863c-.2325 0-.4208-.1873-.4208-.4183z"/></svg>
